X:1
T:Auf Bergeshöhn. C-Dur 
S:Naturjodel rund um den Saentis (www.roothuus-gonten.ch)
%%partsbox
%P:
Q:1/4=60
R:Naturjodel
M:4/4
L:1/4
K:C %  (%%MIDI gchordon) 
"C"C>>EE G/>G/ | e2dc | "G7"f>BAG | B,4 | B,>>FF G/>G/ | f2ed | 
w: tra li do o li  u u li  u lu lu du  ja   ja li o o li  u u di
"C"e>cAG | C4 | C>>EE G/>G/ | e2dc | "G7"f>BAG | B,4 | 
w: u u di du  ja  ja li o o li  u u li  u u di du  ja 
B,>>FF G/>G/ | f2ed | ("C"c4 | c2)z2 |] 
w: ja li o o li  u u li  du
L:1/8
"Dm"d2A>A "G7"f2G>G | "C"c2G>G e2G>G | "Dm"d2A>A "G7"f2G>G | "C"c>B cd e4 | 
w:u ja li du lo li  du jo li u jo li  u jo li u jo li  u lu lu li   u
"Dm"d2A>A "G7"f2G>G | "C"c2G>G e2G>G | "Dm"d2A>A "G7"g>f de | "C"c8 |] 
w: u jo li u jo li  du lo li du jo li  u jo li u u u lu  u 
M:C|
Q:1/2=90
"C"G2EG eEGA | "G7"G2f2B4 | {/A}G2FG BFGA |  "C"G2e2c4 | {/A}G2 EG cEGA | "G7"G2f2B4 | 
w: jo lo lo du o lo di  o u u  (di)jo lo lo du o lo di  o u u  (di)jo lo lo u o lo di  o u u 
GBdf edAB |  "C"c8 |] [P:instr]   xx  || [L:1/4] "G7"G>GAB | "C"cgg>c | "G7"Bgg>B | "C"cag2 | 
w:o li du li u li O li   du    jo li dü O O u u di  O u u di   O u u 
"G7"G>GAB | "C"cgg>c | "G7"Bg g/B/B/B/ | "C"c4 |] [P:instr] x || 
w: jo li dü O  O u u di  O u u i O li   O
K:F
f/ | "F"fAc>d | "Gm"dBd>c | "C7"cee>c | "F"cff>f | 
w: di  u u u di  ri O O di  O u u di  O u u di
fAc>d | "Gm"dBd>c | "C7"ce e/d/c/e/ |  "F"f4 |] [P: instr] x |]
w:u u u di  ri O O di O u u li a li  O
W:
%W:Parts: 
W: trad. AI (1. & 2. Teil)
W: Jodlerin Lisette "Liseli" Schoch- Kuster 26.8.1893- 16.10.1955 und 
W: Hans Frischknechts Streichquartett Urnäsch
W:
W:Hinweis zur Vokalisation:
W:- Es ist nicht immer klar, ob die Jodlerin l oder d singt.Oft ist es eine Mischung.
W:- O bedeutet, dass die Jodlerin diese Töne in der Kopfstimme und nicht wie üblich
W: in der Bruststimme singt, dies wäre in dieser hohen Lage auch gar nicht möglich.
W:
W: Teil 1&2  ist ein typisch innerhodisches *Rugguseli*, welches
W: später auch vom Sohn der Jodlerin Erwin Schoch gesungen wurde. 
W: Die weiteren Teile wurden vermutlich dazukomponiert. 
W: Mit ihren lebendigen, instrumentalen Wendungen erinnern sie an einen Stil, 
W: der in den 1940erJahren beliebt waren. Dies oft auch um den Publikum zu gefallen. 
W: Es gibt verschiedene Jodlerinnen, welche diesen Stil gepflegt haben, z.B.
W: Bethli Lepri-Giezendanner (27.2.1922- 8.6.2012) oder auch 
W: Mary Frey-Bernhardsgrütter (13.2.1900- 8.8.1948).
W:
W:https://www.roothuus-gonten.ch/mediendateien/jodel/pdf/Auf Bergeshöhn.pdf
W: *AUDIO*:  www.roothuus-gonten.ch/cms/index.php/de/naturjodel-rund-um-den-saentis
% © 2017 ROOTHUUS GONTEN. #1315.10 (SCH118A)
% Feb. 24/25, 2019
